src/assets/Icons/Vector.svg

<svg width="20" height="16" viewBox="0 0 20 16" fill="none" xmlns="http://www.w3.org/2000/svg">
<path d="M12.7298 6.34312C12.2684 6.50166 8.19503 7.92816 7.29996 8.97946C6.8194 9.54524 6.58721 10.2646 6.64633 11.0051C6.70578 11.7449 7.0496 12.4184 7.61406 12.8996C8.11576 13.3273 8.75487 13.5635 9.41312 13.5635C10.2286 13.5635 10.9992 13.2068 11.5276 12.5862C12.4217 11.5332 13.1784 7.27849 13.2616 6.79661C13.286 6.65491 13.2345 6.51157 13.1249 6.41777C13.0155 6.3243 12.8659 6.29556 12.7298 6.34312ZM10.909 12.0587C10.2329 12.8537 8.93421 12.9597 8.13955 12.2803C7.74023 11.9398 7.49681 11.4642 7.45519 10.94C7.41325 10.4159 7.5774 9.9069 7.91726 9.50693C8.4193 8.91704 10.6329 7.97044 12.3348 7.3462C11.9953 9.09341 11.4057 11.4748 10.909 12.0587ZM9.74011 -6.29969e-09C4.36934 -6.29969e-09 0 4.4387 0 9.89534C0 11.9765 0.680057 14.084 1.91532 15.8279C1.99129 15.9359 2.11482 16 2.24627 16H17.2343C17.3657 16 17.4893 15.9366 17.5652 15.8279C18.8008 14.084 19.4812 11.9603 19.4812 9.84877C19.4802 4.41822 15.1112 -6.29969e-09 9.74011 -6.29969e-09ZM17.0219 15.1865H2.45864C1.39512 13.6124 0.81151 11.7416 0.81151 9.89501C0.81151 4.88723 4.81688 0.812171 9.74011 0.812171C14.6633 0.812171 18.6687 4.86543 18.6687 9.84877C18.6687 11.7248 18.0854 13.612 17.0219 15.1865ZM9.74011 2.33908C5.96858 2.33908 2.90023 5.44244 2.90023 9.2569C2.90023 9.48182 3.08189 9.66315 3.30615 9.66315C3.53075 9.66315 3.71207 9.48116 3.71207 9.2569C3.71207 5.89063 6.41645 3.15191 9.74044 3.15191C13.0641 3.15191 15.7688 5.88106 15.7688 9.23477C15.7688 9.45969 15.9505 9.64135 16.1747 9.64135C16.3987 9.64135 16.5806 9.45936 16.5806 9.23477C16.5803 5.4322 13.512 2.33908 9.74011 2.33908Z" fill="#647787"/>
</svg>

<svg width="20" height="16" fill="none" xmlns="http://www.w3.org/2000/svg"><path d="M12.73 6.343c-.462.159-4.535 1.585-5.43 2.636a2.769 2.769 0 0 0-.654 2.026 2.777 2.777 0 0 0 4.881 1.581c.895-1.053 1.651-5.308 1.735-5.79a.407.407 0 0 0-.532-.453Zm-1.821 5.716c-.676.795-1.975.9-2.77.221-.399-.34-.642-.816-.684-1.34a1.958 1.958 0 0 1 .462-1.433c.502-.59 2.716-1.537 4.418-2.16-.34 1.746-.93 4.128-1.426 4.712ZM9.74 0C4.37 0 0 4.439 0 9.895c0 2.082.68 4.189 1.915 5.933.076.108.2.172.331.172h14.988a.403.403 0 0 0 .331-.172 10.437 10.437 0 0 0 1.916-5.98c0-5.43-4.37-9.848-9.74-9.848Zm7.282 15.187H2.459C1.395 13.612.812 11.742.812 9.895.812 4.887 4.817.812 9.74.812c4.923 0 8.929 4.053 8.929 9.037a9.619 9.619 0 0 1-1.647 5.338ZM9.74 2.338C5.97 2.34 2.9 5.442 2.9 9.257a.406.406 0 1 0 .812 0c0-3.366 2.704-6.105 6.028-6.105 3.324 0 6.029 2.73 6.029 6.083a.406.406 0 1 0 .812 0c0-3.803-3.069-6.896-6.84-6.896Z" fill="#647787"/></svg>
